X:0051
T:The Cow behind the Haycock.
M:6/8
L:1/8
Q:3/8=120
I: :: ::
Z:Jack Campin * www.campin.me.uk * 2009
K:D
A2a g2f|e2d cde|f2d faf|e3 c3 |
A2a g2f|e2d cde|fdf ece|d3 D3:|
F2A D2d|F2A D2g|f2d faf|e3 E3 |
F2A D2d|F2A D2g|fdf ece|d3 D3:|
<end>
<start>
